X: 10320
T: Domhnall Dubh
R: strathspey
M: 4/4
K: Edorian
E2 (3FAB c2 B<c|B>FA>F D>DE<F|E2 F<A c2 (3ABc|B>FA>F E2 E2:|
G>GF<F E>EG>A|F>FF>E D>EF<D|G>GF<F E>EG>A|B>BA>F E2 E2|
G>GF<F E>EG>A|F>FF>E D>DE<F|E2 (3FAB c2 B<c|B>FA>F E2 E2||

